X: 1
T: String Quartet in D Major opus 64 no 5 mvt 4
C: Franz Joseph Haydn
%%abc-version 2.0
%%abcx-abcm2ps-target-version 5.9.1 (29 Sep 2008)
%%abc-creator hum2abc beta
%%abcx-conversion-date 2021/02/14 14:38:30
%%abc-copyright Copyright (c) 1994, 2000 Center for Computer Assisted Research in the Humanities
%%abc-edited-by Frances Bennion
%%abcx-initial-encoding-date 1997/04/15
%%gracespace 0 6 6
%%humdrum-veritas 1991515471
%%humdrum-veritas-data 3818800804
%%linebreak <none>
%%barnumbers 0
L: 1/16
M: 2/4
N: Derived from op64n5-04.krn
Q: "Finale: Vivace"
%%staves [1 2 3 4]
V: 1
V: 2
V: 3 clef=alto
V: 4 clef=bass
K: D
[V:1]z6 FG [I:setbarnb1]|
[V:2]z6 z2 |
[V:3]z6 z2 |
[V:4]z6 z2 |
[V:1]AFGA BcdB |
[V:2]F2z2 G2z2 |
[V:3]D2z2 D2z2 |
[V:4]D,2z2 D,2z2 |
[V:1]Adfe dcBA |
[V:2]F4 z4 |
[V:3]D4 z4 |
[V:4]D,4 z4 |
[V:1]GAFG EFDE |
[V:2]D8 |
[V:3]G,2A,2 B,2B,2 |
[V:4]B,,2A,,2 G,,2^G,,2 |
[V:1]CDEC A,EFG |
[V:2]C2z6 |
[V:3]A,4 z4 |
[V:4]A,,4 z4 |
[V:1]AFGA BcdB |
[V:2]F2z2 G2z2 |
[V:3]D,2z2 D2z2 |
[V:4]D,,2z2 D,2z2 |
[V:1]Adfe dcBA |
[V:2]F4 z2F2 |
[V:3]D4 z2D2 |
[V:4]D,4 z2D,2 |
[V:1]BdBG FAGE |
[V:2]GBGE DFEC |
[V:3]G,4 A,2A,2 |
[V:4]G,,4 A,,2A,,2 |
[V:1]DFAF DEF^G |
[V:2]D4 z4 |
[V:3]D4 z2D2 |
[V:4]D,4 z4 |
[V:1]AcB^G Acec |
[V:2]E2E2 E2z2 |
[V:3]C2D2 C2z2 |
[V:4]z8 |
[V:1]AcB^G Acec |
[V:2]E2E2 E2z2 |
[V:3]C2D2 C2z2 |
[V:4]z8 |
[V:1]Bdc^A Bdfd |
[V:2]F2G2 F2z2 |
[V:3]D2E2 D2z2 |
[V:4]z8 |
[V:1]Bdc^A Bdf^g |
[V:2]F2G2 F2D2 |
[V:3]D2E2 D2B,2 |
[V:4]z8 |
[V:1]a^gfe ^dfeB |
[V:2]E2c2 B2B,2 |
[V:3]C4 z4 |
[V:4]z2A,4 ^G,2 |
[V:1]dcBA ^GBAE |
[V:2]z8 |
[V:3]z2F2 E2E,2 |
[V:4]z2D,4 C,2 |
[V:1]DEFD CEAc |
[V:2]z2DB, C2CA |
[V:3]z2E,4 F,2 |
[V:4]B,,2^G,,2 A,,2F,,2 |
[V:1]BdB^G AA,AB |
[V:2]F2DB, A,4 |
[V:3]D,2E,2 A,4 |
[V:4]D,,2E,,2 A,,4 |
[V:1]cAcd ecdB |
[V:2]z2AB cAB^G |
[V:3]C4 z4 |
[V:4]A,,4 z4 |
[V:1]cAcd ecef |
[V:2]A2AB cAcd |
[V:3]E4 z4 |
[V:4]A,,4 z4 |
[V:1]gafa gecA |
[V:2]ef^df e2CD |
[V:3]C4 z4 |
[V:4]A,,4 z4 |
[V:1]GAFA GEFG |
[V:2]EF^DF EC=DE |
[V:3]C4 z4 |
[V:4]A,,4 z4 |
[V:1]AFGA BcdB |
[V:2]F2z2 G2z2 |
[V:3]D,2z2 D2z2 |
[V:4]D,,2z2 D,2z2 |
[V:1]Adfe dcBA |
[V:2]F4 z4 |
[V:3]D4 z4 |
[V:4]D,4 z4 |
[V:1]GAFG EFDE |
[V:2]D8 |
[V:3]G,2A,2 B,2B,2 |
[V:4]B,,2A,,2 G,,2^G,,2 |
[V:1]CDEC A,EFG |
[V:2]C2z6 |
[V:3]A,4 z4 |
[V:4]A,,4 z4 |
[V:1]AFGA BcdB |
[V:2]F2z2 G2z2 |
[V:3]D,2z2 D2z2 |
[V:4]D,,2z2 D,2z2 |
[V:1]Adfe dcBA |
[V:2]F4 z2F2 |
[V:3]D4 z2D2 |
[V:4]D,4 z2D,2 |
[V:1]BdBG FAGE |
[V:2]GBGE DFEC |
[V:3]G,4 A,2A,2 |
[V:4]G,,4 A,,2A,,2 |
[V:1]DFAF DEz2 |
[V:2]D4 z4 |
[V:3]D4 z4 |
[V:4]D,4 z4 |
[V:1]DFAF DE=FG |
[V:2]D4 z2DE |
[V:3]D4 z4 |
[V:4]D,4 z4 |
[V:1]A2d4 c2 |
[V:2]=FDFG A_BAG |
[V:3]z8 |
[V:4]z8 |
[V:1]d2e2 =f2^f2 |
[V:2]=FGEF DE=CD |
[V:3]z8 |
[V:4]z8 |
[V:1]g2a2 _b2d2 |
[V:2]_B,=CA,B, G,GA_B |
[V:3]z8 |
[V:4]z8 |
[V:1]c2a4 g2 |
[V:2]AECD EA,B,C |
[V:3]z8 |
[V:4]z8 |
[V:1]=fgef dfed |
[V:2]D2A4 ^G2 |
[V:3]z8 |
[V:4]z8 |
[V:1]=cea^g aea=g |
[V:2]A2B2 =c2^c2 |
[V:3]z8 |
[V:4]z8 |
[V:1]=fad'c' d'ad'f |
[V:2]d2e2 =f2A2 |
[V:3]z8 |
[V:4]z8 |
[V:1]d'=c'ba ^gabe |
[V:2]^G2e4 d2 |
[V:3]z8 |
[V:4]z8 |
[V:1]aea=f agec |
[V:2]c2d2 e2G2 |
[V:3]z8 |
[V:4]z8 |
[V:1]de=fg a_bag |
[V:2]=FGAF E2e2 |
[V:3]z8 |
[V:4]z2D,4 C,2 |
[V:1]=fgef dAd=c |
[V:2]A_BGA =F2A2 |
[V:3]z8 |
[V:4]D,2E,2 =F,2^F,2 |
[V:1]_B=cAB GA=FG |
[V:2]D2F2 G2_B,2 |
[V:3]z8 |
[V:4]G,2A,2 _B,2D,2 |
[V:1]E=FDE =CD_B,C |
[V:2]_B,6 E2 |
[V:3]z8 |
[V:4]=C,2D,2 E,2C,2 |
[V:1]A,4 z4 |
[V:2]=F=c_BA G2c2- |
[V:3]z2=F4 E2 |
[V:4]=F,G,A,_B, =CDCB, |
[V:1]z8 |
[V:2]cd=c_B A2=f2- |
[V:3]=F2G2 A2F2 |
[V:4]A,_B,A,G, =F,G,_E,F, |
[V:1]z8 |
[V:2]fg=f_e d=c_BA |
[V:3]_B2=c2 d2=F2 |
[V:4]D,_E,D,=C, _B,,A,,B,,=B,, |
[V:1]z8 |
[V:2]G=FED =CDEG |
[V:3]E2=c4 _B2 |
[V:4]=C,D,E,=F, E,F,G,E, |
[V:1]z8 |
[V:2]A2z4 =c_B |
[V:3]A2_B2 =c2_e2 |
[V:4]=F,E,F,G, A,_B,A,G, |
[V:1]z8 |
[V:2]A_BGA FGAF |
[V:3]d2d4 =c2 |
[V:4]F,G,E,F, D,E,F,D, |
[V:1]z2g4 f2 |
[V:2]D2_B2 A2B=c |
[V:3]_BG,_B,=C D_EDC |
[V:4]G,4 z2D,2 |
[V:1]g2a2 _b2=b2 |
[V:2]d_e=cd _B2g2- |
[V:3]_B,=CA,B, G,A,=F,G, |
[V:4]G,,4 z2G,,2 |
[V:1]=c'2d'2 _e'2g2 |
[V:2]g_a=fg _e2_B2 |
[V:3]_E,=F,D,E, =C,E,G,=C |
[V:4]=C,,4 z2=C,2 |
[V:1]f2d'4 =c'2 |
[V:2]AGFG AFGA |
[V:3]D2AG F2D2 |
[V:4]D,2D,E, F,D,E,F, |
[V:1]_b2=c'2 d'2=f2 |
[V:2]_B=cBA G=FED |
[V:3]D4 z2G2- |
[V:4]G,2A,2 _B,2=B,2 |
[V:1]e2=c'4 _b2 |
[V:2]EGE=F GEFG |
[V:3]GE=CD ECDE |
[V:4]=C4 z2C2 |
[V:1]a2_ba g2ag |
[V:2]=F4 z4 |
[V:3]=F2GF E2FE |
[V:4]D2G,_B, =C2=F,A, |
[V:1]=fe/f/gf e2fg |
[V:2]z8 |
[V:3]D=FED C2DE |
[V:4]_B,2G,2 A,G,=F,E, |
[V:1]a2d4 c2 |
[V:2]z6 e2- |
[V:3]=FAGF EFGE |
[V:4]D,4 A,4 |
[V:1]=f6 e2 |
[V:2]e2d2 g4- |
[V:3]AG=FA _BAGB |
[V:4]D,4 =C,4 |
[V:1]a6 ^g2 |
[V:2]g2=f2 b4- |
[V:3]=c_BAc dc=Bd |
[V:4]=F,,4 E,,2E,2 |
[V:1]=c'6 b2 |
[V:2]b2a2 d'4- |
[V:3]ed=ce =fedf |
[V:4]A,,4 G,,4 |
[V:1]e'6 =f'2 |
[V:2]d'2=c'4 =cd |
[V:3]eGAB =cded |
[V:4]=C,4 _B,,4 |
[V:1]g'4 c'4 |
[V:2]e6 g2 |
[V:3]cdec AG=FE |
[V:4]A,,8 |
[V:1]d'2d'4 =c'2 |
[V:2]A2ag =f2a2 |
[V:3]=FEFG AGFE |
[V:4]=F,,4 =F,4- |
[V:1]_bd'=c'b ac'ba |
[V:2]g4 =f4 |
[V:3]D2G2 =C2=F2 |
[V:4]F,2E,4 D,2- |
[V:1]g_bag =fagf |
[V:2]e4 A4 |
[V:3]z2A,4 D2 |
[V:4]D,2C,2 D,2=F,,2 |
[V:1]eg=fe dfed |
[V:2]_B4 =B4 |
[V:3]G,4 ^G,4 |
[V:4]G,,4 ^G,,4 |
[V:1]cdec A_BAG |
[V:2]A4 C4 |
[V:3]A,4 E,4 |
[V:4]A,,8- |
[V:1]=FGAF DFED |
[V:2]D4 =F4 |
[V:3]=F,8 |
[V:4]A,,8- |
[V:1]CDED =FEGF |
[V:2]G2=F2 C2D2 |
[V:3]E,2D,2 A,2A,2 |
[V:4]A,,8- |
[V:1]AG_BA dced |
[V:2]E2=F2 G2F2 |
[V:3]A,4 z4 |
[V:4]A,,8- |
[V:1]=fegf ag_ba |
[V:2]C2D2 E2=F2 |
[V:3]z8 |
[V:4]A,,8- |
[V:1]_bgec _BGEC |
[V:2]G8- |
[V:3][C8-E8] |
[V:4]A,,8- |
[V:1]_B,2A,2 C2E2 |
[V:2]G8- |
[V:3][C8E8-] |
[V:4]A,,8- |
[V:1]GA_BA GA=FG |
[V:2]G4 z4 |
[V:3][C4E4] z4 |
[V:4]A,,4 z4 |
[V:1]E=FGF EFDE |
[V:2]z8 |
[V:3]z8 |
[V:4]z8 |
[V:1]CEDC DEFG |
[V:2]z8 |
[V:3]z8 |
[V:4]z8 |
[V:1]AFGA BcdB |
[V:2]F2z2 G2z2 |
[V:3]D2z2 D2z2 |
[V:4]D,2z2 D,2z2 |
[V:1]Adfe dcBA |
[V:2]F4 z4 |
[V:3]D4 z4 |
[V:4]D,4 z4 |
[V:1]GAFG EFDE |
[V:2]D8 |
[V:3]G,2A,2 B,2B,2 |
[V:4]B,,2A,,2 G,,2^G,,2 |
[V:1]CDEC A,EFG |
[V:2]C2z6 |
[V:3]A,4 z4 |
[V:4]A,,4 z4 |
[V:1]AFGA BcdB |
[V:2]F2z2 G2z2 |
[V:3]D,2z2 D2z2 |
[V:4]D,,2z2 D,2z2 |
[V:1]Adfe dcBA |
[V:2]F4 z2F2 |
[V:3]D4 z2D2 |
[V:4]D,4 z2D,2 |
[V:1]BdBG FAGE |
[V:2]GBGE DFEC |
[V:3]G,4 A,2A,2 |
[V:4]G,,4 A,,2A,,2 |
[V:1]DFAF DEF^G |
[V:2]D4 z4 |
[V:3]F,4 z2D2 |
[V:4]D,4 z4 |
[V:1]AcB^G Acec |
[V:2]E2E2 E2z2 |
[V:3]C2D2 C2z2 |
[V:4]z8 |
[V:1]AcB^G Acec |
[V:2]E2E2 E2z2 |
[V:3]C2D2 C2z2 |
[V:4]z8 |
[V:1]Bdc^A Bdfd |
[V:2]F2G2 F2z2 |
[V:3]D2E2 D2z2 |
[V:4]z8 |
[V:1]Bdc^A Bdf^g |
[V:2]F2G2 F2D2 |
[V:3]D2E2 D2B,2 |
[V:4]z8 |
[V:1]a^gfe ^dfeB |
[V:2]E2c2 B2B,2 |
[V:3]C4 z4 |
[V:4]z2A,4 ^G,2 |
[V:1]dcBA ^GBAE |
[V:2]z8 |
[V:3]z2F2 E2E,2 |
[V:4]z2D,4 C,2 |
[V:1]DEFD CEAc |
[V:2]z2DB, C2CA |
[V:3]z2E,4 F,2 |
[V:4]B,,2^G,,2 A,,2F,,2 |
[V:1]BdB^G AA,AB |
[V:2]F2DB, A,2z2 |
[V:3]D,2E,2 A,2z2 |
[V:4]D,,2E,,2 A,,2z2 |
[V:1]cAcd ecdB |
[V:2]z2AB cAB^G |
[V:3]C4 z4 |
[V:4]A,,4 z4 |
[V:1]cAcd ecef |
[V:2]A2AB cAcd |
[V:3]E4 z4 |
[V:4]A,,4 z4 |
[V:1]gafa gAce |
[V:2]ef^df e2z2 |
[V:3]C4 z4 |
[V:4]A,,4 z4 |
[V:1]gafa gefg |
[V:2]ef^df e2AG |
[V:3]C4 z2DE |
[V:4]A,,4 z4 |
[V:1]afga bc'd'b |
[V:2]Fdc=c BAGB |
[V:3]FDEF GABG |
[V:4]D,,2z2 D,,2z2 |
[V:1]ad'f'e' d'c'ba |
[V:2]d4 z4 |
[V:3]FEDC DFGA |
[V:4]D,,2D,E, F,D,E,F, |
[V:1]gafg efde |
[V:2]z8 |
[V:3]B=cAB GAFG |
[V:4]G,4 z4 |
[V:1]cdec Aefg |
[V:2]z6 AG |
[V:3]E4 z2DE |
[V:4]A,4 z4 |
[V:1]afga bc'd'b |
[V:2]Fdc=c BAGB |
[V:3]FDEF GABG |
[V:4]D,,2z2 D,,2z2 |
[V:1]ad'f'e' d'c'ba |
[V:2]d4 z2d2- |
[V:3]FEDC DFGA |
[V:4]D,,2D,E, F,D,E,F, |
[V:1]bgbg faAc |
[V:2]dBGE DFCE |
[V:3]G2G2 A2A,2 |
[V:4]G,2G,2 A,2A,,2 |
[V:1]dfaf decd |
[V:2]DFAF DECD |
[V:3]D4 z4 |
[V:4]D,4 z4 |
[V:1]Bdfd BcAB |
[V:2]B,DFD B,CA,B, |
[V:3]z8 |
[V:4]z8 |
[V:1]GBdB GAFG |
[V:2]G,BdB GAFG |
[V:3]GBdB GAFG |
[V:4]G,B,DB, G,A,F,G, |
[V:1]EFDE CDB,C |
[V:2]EFDE CDB,C |
[V:3]EFDE CDB,C |
[V:4]E,F,D,E, C,D,B,,C, |
[V:1]A,B,CD CDEF |
[V:2]A,4 z4 |
[V:3]A,4 z4 |
[V:4]A,,4 z4 |
[V:1]G^DEF GEFG |
[V:2]z6 DE |
[V:3]z8 |
[V:4]z8 |
[V:1]AFGA BcdB |
[V:2]FDEF GABG |
[V:3]z8 |
[V:4]D,2z2 D,2z2 |
[V:1]ABGA Fddd |
[V:2]FGEF D2z2 |
[V:3]z6 F,G, |
[V:4]D,2z4 D,E, |
[V:1]dddd dddd |
[V:2]z8 |
[V:3]A,F,G,A, B,CDB, |
[V:4]F,D,E,F, G,A,B,G, |
[V:1]dddd defg |
[V:2]z6 de |
[V:3]A,B,G,A, F,DDD |
[V:4]F,G,E,F, D,2z2 |
[V:1]afga bc'd'b |
[V:2]fdef gabg |
[V:3]DDDD DDDD |
[V:4]z8 |
[V:1]abga fad'c' |
[V:2]fgef d2FG |
[V:3]DDDD DDDE |
[V:4]z8 |
[V:1]d'dd'c' bagb |
[V:2]AFGA BcdB |
[V:3]FDEF GABG |
[V:4]D,,D,,D,,D,, D,,D,,D,,D,, |
[V:1]d'dd'c' bagb |
[V:2]AFGA BcdB |
[V:3]FDEF GABG |
[V:4]D,,D,,D,,D,, D,,D,,D,,D,, |
[V:1]d'dd'c' bagb |
[V:2]AFGA BcdB |
[V:3]FDEF GABG |
[V:4]D,,D,,D,,D,, D,,D,,D,,D,, |
[V:1]d'4 z2b2 |
[V:2]A4 z2g2 |
[V:3]F4 z2D2 |
[V:4]D,,4 z2G,,2 |
[V:1]ad'fa gecA |
[V:2]f2df egec |
[V:3]D2D2 CEGE |
[V:4]A,,2A,,2 A,,2A,,2 |
[V:1]d4 z2ed |
[V:2]dcBA GFEF |
[V:3]F2z4 CD |
[V:4]D,4 z4 |
[V:1]c^BcB cded |
[V:2]GFGF GFEF |
[V:3]E^DED E=DCD |
[V:4]A,,8- |
[V:1]c^BcB cded |
[V:2]GFGF GFEF |
[V:3]E^DED E=DCD |
[V:4]A,,8- |
[V:1]c^BcB cded |
[V:2]GFGF GFEF |
[V:3]E^DED E=DCD |
[V:4]A,,8 |
[V:1]c^BcB c2d2 |
[V:2]GFGF G2F2 |
[V:3]E^DED E2=D2 |
[V:4]A,,6 B,,2 |
[V:1]e2z2 [c2E2]z2 |
[V:2]B2z2 G2z2 |
[V:3]G,2z2 A,2z2 |
[V:4]G,,2z2 A,,2z2 |
[V:1][a2d2F2]z2 [G2d2b2]z2 |
[V:2][F2A,2]z2 [G2B,2]z2 |
[V:3]D2z2 D2z2 |
[V:4]D,2z2 G,,2z2 |
[V:1]cdef gabc' |
[V:2]GFED CB,A,G |
[V:3]EDCB, A,G,F,E, |
[V:4]A,,A,,A,,A,, A,,A,,A,,A,, |
[V:1]d'4 z4 |]
[V:2]F4 z4 |]
[V:3]D,4 z4 |]
[V:4]D,,4 z4 |]

